X:1
T:Title
%%score { ( 1 4 5 ) | ( 2 3 6 ) }
L:1/8
M:4/4
K:Ab
V:1 treble nm="Grand Piano"
V:4 treble 
V:5 treble 
V:2 bass 
V:3 bass 
V:6 bass 
V:1
 z4 z2[Q:1/4=100] [CA][DB] | [Ec]2 [Ec]>[Ed] [Ee]2 [Ec][EB] | [FA]3 [FB] [FA]3 F | E2 A>B c2 BA | %4
[M:9/8] [GB]3 [Ac] [GB]2- [GB] z c |[M:4/4] e2 e>f e2 c[EB] | [FA]3 [FB] [FA]3 F |[M:2/4] E2 A>B | %8
 c2- (3cA[DAB] |[M:7/8] [EAc]2 [DGB]>[DEB] [CEA]3 | %10
[M:11/32] [Ee]/4-[Ee]/4-[Ee]/4-[Ee]/4-[Ee]/-<[Ee]/[Ee]3/4 |[M:4/4] (3:2:2[Ge]3 [GB]3 z4 | %12
 (3:2:2e3 c3 z4 | (9:8:8[=Ec]2 [Ec]2 [CEB]/ [CFA]/-[CFA]3/2[CFA]/-[CFA]3/2[CFB]/ | %14
[M:9/8] c2 [Ac]- [Ac]-[Ac]/4 z/4 z/ z z A-A/4 z/4 z/ |[M:4/4] (9:8:7e2 e2 f/ eec3/2[EB] | %16
 A2- A/4 z/4 z/ z z4 | z4 (3c4 A[DAB] |[M:7/8] [EAc]2- [EAc]/4 z/4 z/ z/ [DB]/-[DB]/4 z/4 z/ z2 |] %19
V:2
 z4 z2 [A,,A,]2 | [A,,A,]2 [A,,A,]>[A,,B,] [A,,C]2 [A,,A,]C, | [D,D]3 [D,D] [D,D]3 [D,A,D] | %3
 z4 z2 .D2 |[M:9/8] [E,E]3 [E,E] [E,E]2- [E,E][K:treble] [A,C]2 | %5
[M:4/4] [A,CA]2 [A,CA]>[A,DA] [A,CA]2 [A,EA][K:bass]C, | [D,D]3 [D,D] [D,D]3 [D,A,D] | %7
[M:2/4][K:treble] [A,C]2 [A,CE]>[A,DE] | .[A,EA]4[K:bass] |[M:7/8] A,2 E,>E, A,,3 | %10
[M:11/32] [A,C]/4-[A,C]/4-[A,C]/4-[A,C]/4-[A,C]/-<[A,C]/[A,C]3/4 |[M:4/4] (3:2:2[E,B,]3 [E,E]3 z4 | %12
 (3:2:2[A,CA]3 [A,EA]3 z4[K:bass] | (9:8:8[C,G,]2 [C,G,]2 C,/ F,/-F,3/2F,/-F,3/2F,/ | %14
[M:9/8] z3 z3 z [A,CE][K:treble][A,CE] | %15
[M:4/4] (9:8:7[A,CA]2 [A,CA]2 [A,DA]/ [A,CA][A,CA][A,EA]3/2C,[K:bass] | D2- D/4 z/4 z/ z z4 | %17
 z4 (3[A,EA]4 CA, |[M:7/8][K:bass] A,2- A,/4 z/4 z/ z/ E,/-E,/4 z/4 z/ z2 |] %19
V:3
 x8 | x8 | x8 | [A,C]2 [A,CE]>[A,DE] [A,E]2 [A,E]-[A,CE] |[M:9/8] x7[K:treble] x2 | %5
[M:4/4] x7[K:bass] x | x8 |[M:2/4][K:treble] x4 | z2 (3z C[K:bass]A, |[M:7/8] x7 |[M:11/32] x11/4 | %11
[M:4/4] z4 (3:2:2[E,E]3 [E,B,]3 | z4 (3:2:2[A,EA]3[K:bass] [A,E]3 | x481/60 | %14
[M:9/8] C,2- C,/4 z/4 z/ z E,2- E,-E,/4 z/4 z/[K:treble] z |[M:4/4] x7[K:bass] x57/64 | %16
 (7:8:6D,3/2[D,D]3/2.[D,D]/ [D,D]/- [D,D]2 [D,A,D] | (3:2:2[A,C]3 [A,CE]3 z4 | %18
[M:7/8][K:bass] z2 E,2 A,,3 |] %19
V:4
 x8 | x8 | x8 | x8 |[M:9/8] z3 z3 z A2 |[M:4/4] x8 | x8 |[M:2/4] x4 | x4 |[M:7/8] x7 | %10
[M:11/32] x11/4 |[M:4/4] z4 (3:2:2[GB]3 [Ge]3 | z4 (3:2:2c3 c3 | x481/60 | %14
[M:9/8] z3 z [_EGB]2- [EGB]-[EGB]/4 z/4 z/ z |[M:4/4] x8 | (7:8:6F3/2[FA]3/2.[FB]/ [FA]/- [FA]2 F | %17
 (3:2:2E3 A3 z4 |[M:7/8] z2 G3/2-G/4 z/4 z z2 |] %19
V:5
 x8 | x8 | x8 | x8 |[M:9/8] x9 |[M:4/4] x8 | x8 |[M:2/4] x4 | x4 |[M:7/8] x7 |[M:11/32] x11/4 | %11
[M:4/4] x8 | x8 | x481/60 |[M:9/8] [C=E]2- [C_E-E]/<E/- E z z z2 c |[M:4/4] x8 | x8 | x8 | %18
[M:7/8] z2 [DB]>E [CEA]3 |] %19
V:6
 x8 | x8 | x8 | x8 |[M:9/8] x7[K:treble] x2 |[M:4/4] x7[K:bass] x | x8 |[M:2/4][K:treble] x4 | %8
 x10/3[K:bass] x2/3 |[M:7/8] x7 |[M:11/32] x11/4 |[M:4/4] x8 | x6[K:bass] x2 | x481/60 | %14
[M:9/8] z2 A,,- A,,-A,,/4 z/4 z/ z z3[K:treble] |[M:4/4] x7[K:bass] x57/64 | x8 | x8 | %18
[M:7/8][K:bass] x7 |] %19

